X: 1048
T: Hicazkâr Aranağme (Curcuna)
C: ?
O: Turkey
F: http://compmusic.upf.edu/node/140
N: hicazkar--aranagme--curcuna--1--
N: makam= hicazkar
N: form= aranagme
N: usul= curcuna = 10/8
M: 10/8
L: 1/16
K: C _1/4B _7/8e _7/8A ^f
Q: 1/4=180
%%MIDI tuningsystem comma53
G6d4c2 d2e2 d2c2  | B16-B4  | G6d4c2 d2e2 d2c2  | g16-g4  | \
w:  ARANAĞME  |   |   |   | 
g6a2 g2=f2 g2a_b aga2  | 
w:   | 
=f6g2 f2e2 f2ga gfg2  | d2e2 =e2=f2 e2f2 g2_7/8e2 d2c2  | \
w:   |   | 
B6c2 B2c2 A2G6  | 
w:   | 
G6d4c2 d2e2 d2c2  | B16-B4  | G6d4c2 d2e2 d2c2  | g16-g4  | \
w:  ARANAĞME  |   |   |   | 
g6a2 g2=f2 g2a_b aga2  | 
w:   | 
=f6g2 f2e2 f2ga gfg2  | d2e2 =e2=f2 e2f2 g2_7/8e2 d2c2  | \
w:   |   | 
D6G4D4G6  | 
w:   | 
D6G4D4G6  | |


